icons-dark/actions/22/user-group-delete.svg

<?xml version="1.0" encoding="UTF-8" standalone="no"?>
<!-- Created with Inkscape (http://www.inkscape.org/) -->

<svg
   xmlns:dc="http://purl.org/dc/elements/1.1/"
   xmlns:cc="http://creativecommons.org/ns#"
   xmlns:rdf="http://www.w3.org/1999/02/22-rdf-syntax-ns#"
   xmlns:svg="http://www.w3.org/2000/svg"
   xmlns="http://www.w3.org/2000/svg"
   xmlns:sodipodi="http://sodipodi.sourceforge.net/DTD/sodipodi-0.dtd"
   xmlns:inkscape="http://www.inkscape.org/namespaces/inkscape"
   width="22"
   height="22"
   id="svg3049"
   version="1.1"
   inkscape:version="0.48+devel r"
   sodipodi:docname="user-group-delete.svg"
   inkscape:export-filename="/home/uri/.kde/share/icons/NITRUX-KDE/16x16/actions/view-right-new.png"
   inkscape:export-xdpi="30"
   inkscape:export-ydpi="30">
  <defs
     id="defs3051" />
  <sodipodi:namedview
     id="base"
     pagecolor="#ffffff"
     bordercolor="#666666"
     borderopacity="1.0"
     inkscape:pageopacity="0.0"
     inkscape:pageshadow="2"
     inkscape:zoom="17.598537"
     inkscape:cx="4.9943513"
     inkscape:cy="12.153307"
     inkscape:document-units="px"
     inkscape:current-layer="layer1"
     showgrid="true"
     fit-margin-top="0"
     fit-margin-left="0"
     fit-margin-right="0"
     fit-margin-bottom="0"
     inkscape:window-width="1366"
     inkscape:window-height="668"
     inkscape:window-x="-2"
     inkscape:window-y="23"
     inkscape:window-maximized="1"
     inkscape:showpageshadow="false"
     borderlayer="true">
    <sodipodi:guide
       position="2.0000044,20.00003"
       orientation="18,0"
       id="guide4067" />
    <sodipodi:guide
       position="2.0000044,2.0000296"
       orientation="0,18"
       id="guide4069" />
    <sodipodi:guide
       position="20.000004,2.0000296"
       orientation="-18,0"
       id="guide4071" />
    <sodipodi:guide
       position="20.000004,20.00003"
       orientation="0,-18"
       id="guide4073" />
    <sodipodi:guide
       position="3.0000044,19.00003"
       orientation="16,0"
       id="guide4077" />
    <sodipodi:guide
       position="3.0000044,3.0000296"
       orientation="0,16"
       id="guide4079" />
    <sodipodi:guide
       position="19.000004,3.0000296"
       orientation="-16,0"
       id="guide4081" />
    <sodipodi:guide
       position="19.000004,19.00003"
       orientation="0,-16"
       id="guide4083" />
    <inkscape:grid
       type="xygrid"
       id="grid4085" />
  </sodipodi:namedview>
  <metadata
     id="metadata3054">
    <rdf:RDF>
      <cc:Work
         rdf:about="">
        <dc:format>image/svg+xml</dc:format>
        <dc:type
           rdf:resource="http://purl.org/dc/dcmitype/StillImage" />
        <dc:title></dc:title>
      </cc:Work>
    </rdf:RDF>
  </metadata>
  <g
     inkscape:label="Capa 1"
     inkscape:groupmode="layer"
     id="layer1"
     transform="translate(-421.71429,-525.79074)">
    <path
       style="opacity:1;fill:#f2f2f2;fill-opacity:1;stroke:none"
       d="M 8,6 C 6.3380003,6 5,7.3380003 5,9 c 0,1.662 1.3380003,3 3,3 1.6619997,0 3,-1.338 3,-3 C 11,7.3380003 9.6619997,6 8,6 Z m 0,7 c -2.7700166,0 -5,2.229983 -5,5 l 0,1 10,0 0,-1 c 0,-2.770017 -2.229983,-5 -5,-5 z m 0,1 c 2.216017,0 4,1.783983 4,4 l -8,0 c 0,-2.216017 1.7839834,-4 4,-4 z"
       transform="translate(421.71429,525.79074)"
       id="rect4109"
       inkscape:connector-curvature="0"
       sodipodi:nodetypes="sssssssccsssccs" />
    <path
       style="opacity:1;fill:#da4453;fill-opacity:1;stroke:none"
       d="M 14 3 C 12.338 3 11 4.338 11 6 C 11 7.662 12.338 9 14 9 C 15.662 9 17 7.662 17 6 C 17 4.338 15.662 3 14 3 z M 14 10 C 13.353654 10 12.744006 10.134157 12.181641 10.361328 L 12.636719 11.275391 C 13.064535 11.114885 13.514485 11 14 11 C 16.21602 11 18 12.78398 18 15 L 14.5 15 L 15 16 L 19 16 L 19 15 C 19 12.22998 16.77002 10 14 10 z "
       transform="translate(421.71429,525.79074)"
       id="path4139" />
  </g>
</svg>

<svg xmlns="http://www.w3.org/2000/svg" viewBox="0 0 22 22">
  <defs id="defs3051">
    <style type="text/css" id="current-color-scheme">
      .ColorScheme-Text {
        color:#f2f2f2
      }
      .ColorScheme-Highlight {
        color:#3daee9;
      }
      </style>
  </defs>
 <path 
     style="fill:currentColor;fill-opacity:1;stroke:none" 
     d="M 8 6 C 6.3380003 6 5 7.3380003 5 9 C 5 10.662 6.3380003 12 8 12 C 9.6619997 12 11 10.662 11 9 C 11 7.3380003 9.6619997 6 8 6 z M 8 13 C 5.2299834 13 3 15.229983 3 18 L 3 19 L 13 19 L 13 18 C 13 15.229983 10.770017 13 8 13 z M 8 14 C 10.216017 14 12 15.783983 12 18 L 4 18 C 4 15.783983 5.7839834 14 8 14 z "
     class="ColorScheme-Text"
     />
 <path 
     style="fill:#da4453;fill-opacity:1;stroke:none" 
     d="M 14 3 C 12.338 3 11 4.338 11 6 C 11 7.662 12.338 9 14 9 C 15.662 9 17 7.662 17 6 C 17 4.338 15.662 3 14 3 z M 14 10 C 13.353654 10 12.744006 10.134157 12.181641 10.361328 L 12.636719 11.275391 C 13.064535 11.114885 13.514485 11 14 11 C 16.21602 11 18 12.78398 18 15 L 14.5 15 L 15 16 L 19 16 L 19 15 C 19 12.22998 16.77002 10 14 10 z "
     />
</svg>
